app/img/header/slider/custom-dots-arrow-icon-mobile.svg

<svg width="16" height="13" viewBox="0 0 16 13" fill="none" xmlns="http://www.w3.org/2000/svg">
<path opacity="0.8" d="M14.9777 6.43092L15.1632 6.35613C15.1384 6.29462 15.1015 6.23966 15.0549 6.19376L9.80618 0.943906L9.80616 0.94389C9.61431 0.752037 9.30276 0.752037 9.11091 0.94389C8.91906 1.13574 8.91906 1.44729 9.11091 1.63915L13.5213 6.05009L1.29166 6.05009C1.02021 6.05009 0.800001 6.2703 0.800001 6.54175C0.800001 6.81321 1.02021 7.03342 1.29166 7.03342L13.5213 7.03342L9.11091 11.4438C9.01492 11.5398 8.96658 11.6659 8.96658 11.7917C8.96658 11.9174 9.01481 12.0431 9.1096 12.1389L9.11069 12.14C9.30304 12.3314 9.61345 12.3314 9.8058 12.14L9.80616 12.1396L15.0555 6.89026C15.1016 6.84418 15.1371 6.78972 15.1617 6.73217L15.1617 6.73217L15.1622 6.73089C15.2126 6.61037 15.2126 6.47431 15.1622 6.35378L14.9777 6.43092ZM14.9777 6.43092C15.0074 6.50209 15.0074 6.58259 14.9777 6.65375L14.9141 6.33584C14.9415 6.36267 14.9631 6.39476 14.9777 6.43092Z" fill="white" stroke="white" stroke-width="0.4"/>
</svg>

<svg width="16" height="13" fill="none" xmlns="http://www.w3.org/2000/svg"><path opacity=".8" d="M14.978 6.43l.185-.074a.479.479 0 00-.108-.162L9.806.944h0a.492.492 0 00-.695.695l4.41 4.411H1.291a.492.492 0 000 .983h12.23l-4.41 4.41a.491.491 0 00-.001.696v.001a.493.493 0 00.696 0h0l5.25-5.25a.503.503 0 00.106-.158h0v-.001a.49.49 0 000-.377l-.184.077zm0 0a.29.29 0 010 .224l-.064-.318a.279.279 0 01.064.095z" fill="#fff" stroke="#fff" stroke-width=".4"/></svg>
